src/objects/tool/2696.svg

<svg id="emoji" viewBox="0 0 72 72" xmlns="http://www.w3.org/2000/svg">
  <g id="grid">
    <path fill="#b3b3b3" d="M68,4V68H4V4H68m4-4H0V72H72V0Z"/>
    <path fill="none" stroke="#00a5ff" stroke-miterlimit="10" stroke-width="0.1" d="M12.923,10.9583H59.0769A1.9231,1.9231,0,0,1,61,12.8814V59.0352a1.9231,1.9231,0,0,1-1.9231,1.9231H12.9231A1.9231,1.9231,0,0,1,11,59.0352V12.8813A1.923,1.923,0,0,1,12.923,10.9583Z"/>
    <rect x="16" y="4" rx="2.2537" width="40" height="64" fill="none" stroke="#00a5ff" stroke-miterlimit="10" stroke-width="0.1"/>
    <rect x="16" y="4" rx="2.2537" width="40" height="64" transform="translate(72) rotate(90)" fill="none" stroke="#00a5ff" stroke-miterlimit="10" stroke-width="0.1"/>
    <circle cx="36" cy="36" r="29" fill="none" stroke="#00a5ff" stroke-miterlimit="10" stroke-width="0.1"/>
  </g>
  <g id="color">
    <path fill="#9B9B9A" stroke="none" d="M48.0626,62.92c0-3.3137-5.5964-6-12.5-6s-12.5,2.6863-12.5,6H48.0626z"/>
    <path fill="#D0CFCE" stroke="none" d="M24.9006,46.9656c0,2.1938-2.1985,3.9723-4.9106,3.9723s-4.9106-1.7785-4.9106-3.9723H24.9006z"/>
    <path fill="#D0CFCE" stroke="none" d="M57.9006,46.9248c0,2.1938-2.1985,3.9723-4.9106,3.9723c-2.712,0-4.9106-1.7785-4.9106-3.9723H57.9006z"/>
  </g>
  <g id="hair"/>
  <g id="skin"/>
  <g id="skin-shadow"/>
  <g id="line">
    <path fill="none" stroke="#000000" stroke-linecap="round" stroke-linejoin="round" stroke-miterlimit="10" stroke-width="2" d="M15.9996,25.1697c2.6667,0.0001,8.9544-5.3333,20.0002-5.3333S50.6666,23.8365,56,25.1697"/>
    <line x1="35.9998" x2="35.9998" y1="23.9064" y2="51.9064" fill="none" stroke="#000000" stroke-linecap="round" stroke-linejoin="round" stroke-miterlimit="10" stroke-width="2"/>
    <circle cx="35.9998" cy="13.895" r="3" fill="#000000" stroke="none"/>
    <path fill="none" stroke="#000000" stroke-linecap="round" stroke-linejoin="round" stroke-miterlimit="10" stroke-width="2" d="M48,61.9064c0-3.3137-5.5964-6-12.5-6s-12.5,2.6863-12.5,6"/>
    <path fill="none" stroke="#000000" stroke-linecap="round" stroke-linejoin="round" stroke-miterlimit="10" stroke-width="2" d="M26,45.9064c0,3.3137-2.6863,6-6,6s-6-2.6863-6-6H26z"/>
    <polygon fill="none" stroke="#000000" stroke-linecap="round" stroke-linejoin="round" stroke-miterlimit="10" stroke-width="2" points="20,27.9064 15,45.9064 25,45.9064"/>
    <line x1="20" x2="20" y1="27.9064" y2="45.9064" fill="none" stroke="#000000" stroke-linecap="round" stroke-linejoin="round" stroke-miterlimit="10" stroke-width="2"/>
    <path fill="none" stroke="#000000" stroke-linecap="round" stroke-linejoin="round" stroke-miterlimit="10" stroke-width="2" d="M59,45.9064c0,3.3137-2.6863,6-6,6s-6-2.6863-6-6H59z"/>
    <polygon fill="none" stroke="#000000" stroke-linecap="round" stroke-linejoin="round" stroke-miterlimit="10" stroke-width="2" points="53,27.9064 48,45.9064 58,45.9064"/>
    <line x1="53" x2="53" y1="27.9064" y2="45.9064" fill="none" stroke="#000000" stroke-linecap="round" stroke-linejoin="round" stroke-miterlimit="10" stroke-width="2"/>
  </g>
</svg>

<svg viewBox="0 0 72 72" xmlns="http://www.w3.org/2000/svg"><path fill="#b3b3b3" d="M68 4v64H4V4h64m4-4H0v72h72V0z"/><path fill="none" stroke="#00a5ff" stroke-miterlimit="10" stroke-width=".1" d="M12.923 10.958h46.154A1.923 1.923 0 0161 12.881v46.154a1.923 1.923 0 01-1.923 1.923H12.923A1.923 1.923 0 0111 59.035V12.881a1.923 1.923 0 011.923-1.923z"/><rect x="16" y="4" rx="2.254" width="40" height="64" fill="none" stroke="#00a5ff" stroke-miterlimit="10" stroke-width=".1"/><rect x="16" y="4" rx="2.254" width="40" height="64" transform="rotate(90 36 36)" fill="none" stroke="#00a5ff" stroke-miterlimit="10" stroke-width=".1"/><circle cx="36" cy="36" r="29" fill="none" stroke="#00a5ff" stroke-miterlimit="10" stroke-width=".1"/><g stroke-linecap="round" stroke-miterlimit="10" stroke-width="6" stroke="#fff" fill="none" stroke-linejoin="round"><path d="M16 25.17c2.666 0 8.954-5.334 20-5.334s14.667 4 20 5.334m-20-1.264v28"/><circle cx="36" cy="13.895" r="3"/><path d="M48 61.906c0-3.313-5.596-6-12.5-6s-12.5 2.687-12.5 6m3-16a6 6 0 01-12 0h12zm-6-18l-5 18h10zm0 0v18m39 0a6 6 0 01-12 0h12zm-6-18l-5 18h10zm0 0v18"/></g><path fill="#9B9B9A" d="M48.063 62.92c0-3.314-5.597-6-12.5-6s-12.5 2.686-12.5 6h25z"/><path fill="#D0CFCE" d="M24.9 46.966c0 2.193-2.198 3.972-4.91 3.972s-4.91-1.779-4.91-3.972h9.82zm33-.041c0 2.194-2.198 3.972-4.91 3.972s-4.91-1.778-4.91-3.972h9.82z"/><path fill="none" stroke="#000" stroke-linecap="round" stroke-linejoin="round" stroke-miterlimit="10" stroke-width="2" d="M16 25.17c2.666 0 8.954-5.334 20-5.334s14.667 4 20 5.334m-20-1.264v28"/><circle cx="36" cy="13.895" r="3"/><path fill="none" stroke="#000" stroke-linecap="round" stroke-linejoin="round" stroke-miterlimit="10" stroke-width="2" d="M48 61.906c0-3.313-5.596-6-12.5-6s-12.5 2.687-12.5 6m3-16a6 6 0 01-12 0h12zm-6-18l-5 18h10zm0 0v18m39 0a6 6 0 01-12 0h12zm-6-18l-5 18h10zm0 0v18"/></svg>
